X:1
T:Maracaibo, 11.8.11.8 D
T:Maracaibo, 11.8.11.8 D
T:Emily Devine Wilson, 1907
T:Public Domain Courtesy of the Cyber Hymnal™
C:Emily Devine Wilson, 1907
Z:Public Domain
Z:Courtesy of the Cyber Hymnal™
%%score ( 1 2 ) ( 3 4 )
L:1/8
Q:1/4=120
M:6/4
K:Ab
V:1 treble 
V:2 treble 
V:3 bass 
V:4 bass 
V:1
 E2 | [Ec]3 [=D=B] [Ec]2 [F^c]3 [E=c] [_D_B]2 | [EA]2 [EG]2 [DF]2 [CE]4 [CE]2 | %3
 [CA]3 [CA] [CA]2 [=DA]2 [DG]2 [DA]2 | [EB]6- [EB]4 E2 | [Ec]3 [Ec] [Ec]2 [=EB]4 [EG][EG] | %6
 [GB]3 [FA] [FA]2 [FA]4 [=B,F]2 | [CE]3 [EA] [EA]2 [EG]2 [EA]2 [GB]2 | [EA]6- [EA]4 [EA]2 | %9
 [GB]3 [GB] [GB]2 [GB]2 [EA]2 [GB]2 | [Ac]2 [EA]2 [DF]2 [CE]4 [Ec]2 | %11
 [Ec]3 [EB] [EB]2 [=DB]2 [Ac]2 [A=d]2 | [Ge]6- [Ge]4 [Gd]2 | [Ec]3 [Ec] [Ec]2 [=Ec]4 [EB][EG] | %14
 [GB]3 [FA] [FA]2 [FA]4 [=B,F]2 | [CE]3 [EA] [EA]2 [EG]2 [EA]2 [EB]2 | [EA]6- [EA]4 |] %17
V:2
 E2 | x12 | x12 | x12 | x10 E2 | x12 | x12 | x12 | x12 | x12 | x12 | x12 | x12 | x12 | x12 | x12 | %16
 x10 |] %17
V:3
 E,2 | [A,,A,]3 [A,,A,] [A,,A,]2 [A,,A,]3 [A,,A,] [B,,G,]2 | %2
 [C,A,]2 [C,A,]2 [D,A,]2 [A,,A,]4 [A,,A,]2 | [A,,E,]3 [A,,E,] [A,,A,]2 [F,B,]2 [F,B,]2 [F,A,]2 | %4
 [E,G,]6- [E,G,]4 [E,G,]2 | [A,,A,]3 [A,,A,] [A,,A,]2 [C,G,]4 [C,C][C,C] | %6
 [F,C]3 [F,C] [F,C]2 [D,D]4 [=D,A,]2 | [E,A,]3 [E,C] [E,C]2 [E,B,]2 [E,C]2 [E,D]2 | %8
 [A,C]6- [A,C]4 [A,C]2 | [E,D]3 [E,D] [E,D]2 [E,D]2 [E,C]2 [E,C]2 | %10
 [A,E]2 [A,C]2 A,2 [A,,A,]4 [A,,A,]2 | [B,,G,]3 [B,,G,] [B,,G,]2 [B,,F,]2 [B,,B,]2 [B,,B,]2 | %12
 [E,B,]6- [E,B,]4 [E,B,]2 | [A,,A,]3 [A,,A,] [A,,A,]2 [C,G,]4 [C,G,][C,C] | %14
 [F,C]3 [F,C] [F,C]2 [D,D]4 [=D,A,]2 | [E,A,]3 [E,C] [E,C]2 [E,B,]2 [E,C]2 [E,D]2 | %16
 [A,,A,C]6- [A,,A,C]4 |] %17
V:4
 E,2 | x12 | x12 | x12 | x12 | x12 | x12 | x12 | x12 | x12 | x4 A,2 x6 | x12 | x12 | x12 | x12 | %15
 x12 | x10 |] %17

